!!!COM: Lassus, Orlandus
!!!CDT: 1532-1594/06/14
!!!OPR: Geistliche Psalmen mit dreyen Stimmen
!!!ONM: 43
!!!OTL@@LA: Deus auribus nostris
!!!OTL-incipit@@DE: Wir haben Herr mit unsern ohren
**kern	**text	**kern	**text	**kern	**text
*staff3	*staff3	*staff2	*staff2	*staff1	*staff1
*Ivox	*	*Ivox	*	*Ivox	*
*I"Bassus	*	*I"Tenor	*	*I"Cantus	*
*I'B	*	*I'T	*	*I'C	*
*clefC3	*	*clefG2	*	*clefG2	*
*k[]	*	*k[]	*	*k[]	*
*a:aeo	*	*a:aeo	*	*a:aeo	*
*M2/1	*	*M2/1	*	*M2/1	*
*met(C|)	*	*met(C|)	*	*met(C|)	*
*MM180	*	*MM180	*	*MM180	*
=1	=1	=1	=1	=1	=1
0r	.	1dd	Wie	0r	.
.	.	2a	ha-	.	.
.	.	2a	-ben	.	.
=2	=2	=2	=2	=2	=2
1r	.	1.ff	Herr	2r	.
.	.	.	.	2dd	Wir
!LO:TX:a:i:t=c.f.	!	!	!	!	!
1d	Wir	.	.	2a	ha-
.	.	2ff	mit	2a	-ben
=3	=3	=3	=3	=3	=3
2A	ha-	2ee	un-	2.cc	Herr
2A	-ben	2a	-sern	.	.
.	.	.	.	4cc	mit
2c	Herr	2g	oh-	2ee	un-
2d	mit	2f	-ren/	2a	-sern
=4	=4	=4	=4	=4	=4
2e	un-	2r	.	4cc	oh-
.	.	.	.	4g	.
2d	-sern	2ff	mit	4a	.
.	.	.	.	4b	.
1c	oh-	2ee	un-	4cc	.
.	.	.	.	4dd	.
.	.	2gg	-sern	2ee	.
=5	=5	=5	=5	=5	=5
2d	-ren/	2ff#	oh-	2a	-ren/
2e	wol	4gg	-ren/	2g	wol
.	.	4cc	wol	.	.
2f	sa-	2cc	sa-	2a	sa-
2e	-gen	2gg	-gen	4b	-gen
.	.	.	.	2cc	hö-
=6	=6	=6	=6	=6	=6
1d	hö-	1ff	hö-	.	.
.	.	.	.	8b	.
.	.	.	.	8a	.
.	.	.	.	2b	.
1c	-ren/	1ee	-ren/	2cc	-ren/
.	.	.	.	4r	.
.	.	.	.	4a	was
=7	=7	=7	=7	=7	=7
2r	.	4r	.	2cc	un-
.	.	4a	was	.	.
2A	was	2cc	un-	2ee	-ser
2c	un-	4g	-ser	2ee	Vä-
.	.	2gg	Vat-	.	.
2d	-ser	.	.	2a	-ter
.	.	4ff#	-ter	.	.
=8	=8	=8	=8	=8	=8
2e	Vä-	4.gg	al-	4r	.
.	.	.	.	4g	al-
.	.	8ee	.	.	.
2d	-ter	4.ff	.	8a	.
.	.	.	.	8b-	.
.	.	.	.	8a	.
.	.	8ee	.	8f	.
2c	al-	4.ee	.	8g	.
.	.	.	.	8e	.
.	.	.	.	2a	.
.	.	8cc	.	.	.
2B	-ter	2dd	.	.	.
.	.	.	.	4g#i	-ter
=9	=9	=9	=9	=9	=9
1A	welt/	4.cc	-ter	2a	welt/
.	.	8b	.	.	.
.	.	2a	.	2cc	von
2r	.	1g	welt/	4dd	dir
.	.	.	.	4dd	uns
2c	von	.	.	2ee	ha-
=10	=10	=10	=10	=10	=10
2d	dir	2r	.	2a	-ben
2d	uns	2f	von	4a	offt
.	.	.	.	4b	.
2e	ha-	4g	dir	4cc	.
.	.	4g	uns	4b	.
2c	-ben	1a	ha-	2cc	.
=11	=11	=11	=11	=11	=11
2d	offt	.	.	1b	ver-
2e	ver-	2g#	-ben	.	.
1f	-meld/	2a	offt	2a	-meld/
.	.	2a	ver-	2cc	wie
=12	=12	=12	=12	=12	=12
2r	.	2ee	-meldt/	2cc	sich
2e	wie	4r	.	2cc	vor
.	.	4gg	wie	.	.
2e	sich	2gg	sich	2.b	al-
2e	vor	2gg	vor	.	.
.	.	.	.	8a	.
.	.	.	.	8g	.
=13	=13	=13	=13	=13	=13
2d	al-	2ff	al-	2a	.
2g	-ters	2dd	-ters	2b	-ters
2f	zu	2aa	zu	4cc	zu
.	.	.	.	4a	ge-
2e	ge-	2gg	ge-	2.cc	-tra-
=14	=14	=14	=14	=14	=14
1d	-tra-	1ff	-tra-	.	.
.	.	.	.	8b	.
.	.	.	.	8a	.
.	.	.	.	2b	.
2c	-gen/	2ee	-gen/	2cc	-gen/
2A	in	2cc	in	2ee	in
=15	=15	=15	=15	=15	=15
2c	jh-	4g	jh-	2ee	jh-
.	.	4g	-ren	.	.
2d	-ren	2.b-	ta-	2dd	-ren
1f	ta-	.	.	2.cc	ta-
.	.	4a	.	.	.
.	.	2.a	.	.	.
.	.	.	.	8b	.
.	.	.	.	8a	.
=16	=16	=16	=16	=16	=16
2e	-gen/	.	.	1b	.
.	.	8g	.	.	.
.	.	8f	.	.	.
4r	.	2g	.	.	.
4e	das	.	.	.	.
2.f	du	2a	-gen/	4a	-gen/
.	.	.	.	4cc	das
.	.	2a	daß	4cc	du
4f	viel	.	.	2dd	viel
=17	=17	=17	=17	=17	=17
2g	wun-	4b	du	.	.
.	.	4b	viel	2ee	wun-
2a	-der	4cc	wun-	.	.
.	.	4a	-der	4cc	-der
2g	hast	2.dd	hast	2b	hast
2f	ge-	.	.	2a	ge-
.	.	4dd	ge-	.	.
=18	=18	=18	=18	=18	=18
0e	-than/	2b	-than/	1g#	-than/
.	.	2ee	und	.	.
.	.	2cc	gros-	2r	.
.	.	2b	-se	2ee	und
=19	=19	=19	=19	=19	=19
2r	.	2a	tha-	2cc	gros-
2e	und	2g	-ten	2b	-se
2c	gros-	2.g	se-	2ee	tha-
2B	-se	.	.	2dd	-ten
.	.	8a	.	.	.
.	.	8b	.	.	.
=20	=20	=20	=20	=20	=20
2A	tha-	2cc	.	1ee	se-
2c	-ten	2.a	-hen	.	.
2B	se-	.	.	1dd	-hen
.	.	8g#i	.	.	.
.	.	8f#i	.	.	.
2B	-hen	2g#i	.	.	.
=21	=21	=21	=21	=21	=21
0All	lan.	0all	lan.	0cc#ll	lan.
==	==	==	==	==	==
*-	*-	*-	*-	*-	*-
!!!RDF**kern: l = terminal long
!!!RDF**kern: i = editorial accidental
!!!AGN: Psalm; Tricinium
!!!LIB: Ulenberg, Caspar
!!!LIB-CDT: 1548/12/24-1617/02/16
!!!YOR: https://mdz-nbn-resolving.de/details:bsb00075346
!!!YOO: München, Bayerische Staatsbibliothek
!!!URL-scan: https://www.digitale-sammlungen.de/de/view/bsb00075346?page=53 Cantus
!!!URL-scan: https://www.digitale-sammlungen.de/de/view/bsb00075346?page=113 Tenor
!!!URL-scan: https://www.digitale-sammlungen.de/de/view/bsb00075346?page=169 Bassus
!!!IIIF: https://api.digitale-sammlungen.de/iiif/presentation/v2/bsb00075346/manifest
!!!EED: Wolfgang Drescher
!!!END: 2023/03/29
!!!ENC: Wolfgang Drescher
!!!EEV: 2023/03/29
!!!title: @{ONM}. @{OTL} / <i>@{OTL-incipit@@DE}</i>